X:270
T:Merry Sherwood Rangers
T:Durham Rangers
M:4/4
L:1/8
S:As played by Ashley Hutchings et al. on the album
"Kicking up the Sawdust"
S:Transcribed/arranged by Doug Mast.
R:hornpipe
K:D
FG | "D"AB AF A2 d2 | fg ef d2 A2 | "G"Bc dB "D"AB AF | "A"G2 E2 E2 FG |
"D"AB AF A2 d2 | fg ef d2 A2 | "G"Bc dB "A"AB AG | "D"F2 D2 D2 ag |
fe fg af df | ed cB A2 d| g2 bg f2 af | g2 e2 e2 FG |
"D"AB AF A2 d2 | fg ef d2 A2 | "G"Bc dB "A"AB AG | "D"F2 D2 D2 ag |

